X:1
T:Hot-House Rag
T:Hot-House Rag
T:Paul Pratt.
T:Copyright 1914 by Stark Music Co.
T:Copyright 1914 by Stark Music Co.
T:Copyright 1914 by Stark Music Co.
T:Copyright 1914 by Stark Music Co.
T:Copyright 1914 by Stark Music Co.
T:Copyright 1914 by Stark Music Co.
C:Paul Pratt.
Z:Copyright 1914 by Stark Music Co.
%%score { ( 1 3 ) | ( 2 4 5 ) }
L:1/8
Q:1/4=90
M:2/4
K:C
V:1 treble nm="Piano" snm="Pno."
V:3 treble 
V:2 bass 
V:4 bass 
V:5 bass 
V:1
"^Moderato"!mf! (3g/a/g/ d G2 |!mp! d/e/d/c/ g2 | G/A/B/A/- A/G/_G/F/ | %3
 E z!sfz! [e^gbe'] z/ (3E/4^F/4^G/4 | %4
!mf!!8va(! z/ [^g'^g'']/"_L.H."!>![a'c''e''a'']/ z/ !>![^d'^d'']/[e'a'c''e'']/ z/ [^g^g']/ | %5
!>![ac'e'a']/ z/!8va)! !>![^d^d']/[eac'e']/ z/ [^G^g]/!>![Aa]/[Ee]/ | %6
 z/ [Adfa][Adfa]/- [Adfa]/[Gg]/[Ff] | !>![EAce]7/2 (3E/4^F/4^G/4 | %8
!8va(! z/ [^g'^g'']/"_L.H."!>![a'c''e''a'']/ z/ !>![^d'^d'']/[e'a'c''e'']/ z/ [^g^g']/ | %9
!>![ac'e'a']/ z/!8va)! !>![^d^d']/[eac'e']/ z/ [^G^g]/!>![Aa]/[Ee]/ | %10
 z/ [e^fac'e']!>![eac'e']/- [eac'e']/[dd']/[cc']/[Bb]/ | %11
 [Aa]/[_A_a]/[Gg]/!>![_G_g]/- [Gg]/[Ff]/[Ee] | %12
!8va(! z/ [^g'^g'']/"_L.H."!>![a'c''e''a'']/ z/ !>![^d'^d'']/[e'a'c''e'']/ z/ [^g^g']/ | %13
!>![ac'e'a']/ z/!8va)! !>![^d^d']/[eac'e']/ z/ [^G^g]/!>![Aa]/[Ee]/ | %14
 z/ [Adfa][Adfa]/- [Adfa]/[Gg]/[Ff] | !>![EAce]7/2 (3E/4^F/4^G/4 | %16
 A/!8va(! [a^c'e'a']!>![ad'f']/- [ad'f']/e'/[ad'] | %17
 z/ [bd'f'g']!>![gc'e']/- [gc'e']/d'/[gc']!8va)! | z/ [f^g]/[^fa]/!>![=fbe']/- [fbe']/^d'/[fbe'] | %19
 [egc']2!8va(! !>![c'e'g'c'']2!8va)! |:!pp!!ff!"_-" z/ ^D/E/!>![GAc]/- [GAc]/^D/E/!>![GAc]/- | %21
 [GAc]/^D/E/!>![GAc]/- [GAc]/E/[Bd]/=D/ | z/ ^F/G/!>![Bdf]/- [Bdf]/F/G/!>![Bdf]/- | %23
 [Bdf]/^F/G/!>![Bdf]/- [Bdf]/G/[eg]/G/ | z/ ^c/d/!>![^fac']/- [fac']/c/d/!>![fac']/- | %25
 [fac']/^c/d/!>![^fac']/- [fac']/d/[bd']/=f/ | z/!f! !>![c'e'][bd']/ [ac']/[gb]/[fa]/[eg]/ | %27
 [df]/[de]/[df]/[de]/- [de]/[df]/[de] |!8va(! z/ ^d/e/!>![gac']/- [gac']/^d/e/!>![gac']/- | %29
 [gac']/^d/e/!>![gac']/- [gac']/e/[bd']/=d/ | z/ ^f/g/!>![bd'f']/- [bd'f']/f/g/!>![bd'f']/- | %31
 [bd'f']/^f/g/!>![bd'f']/- [bd'f']/g/[e'g']/g/!8va)! | %32
 z/ ^c/d/!>![^fac']/- [fac']/c/d/!>![fac']/- | [fac']/^c/d/!>![=fb]/- [fb]/[ff']/[ee']/[dd']/ |1 %34
 [cec']4- | [cec']/!<(! !>![Ee][^F^f]/ ([^G^g]/[Ff]/[Ee])!<)! :|2 [cec']4- | [cec']2 [cegc'] z || %38
!mf! (3(c'/d'/c'/ g) c2 |!mp! (G/A/G/F/ c2) |!<(! (C/D/E/F/ G/A/_B/=B/ | %41
 c2)!<)!!sfz!!8va(! [c'e'g'_b'c''] z!8va)! |:[K:F]!pp!!f!"_-""^TRIO." z/ c'/c'/c'/ =b/b/b/b/ | %43
 _b/bb/- bb | z/ c'/c'/c'/ =b/b/b/b/ | _b/bb/- bb | z/ =b/b/b/"_cresc." z/ c'/_b/a/ | %47
 z/ ^f'/f'/f'/!<(! z/ d'/d'/d'/ | z/!<)!!f! [=bd'][ac']/ [gb]/[fa]/[eg]/[df]/ | %49
!>(! [ce]/[=Be][_Be]/-!>)! [Be]2 | z/ c'/c'/c'/ =b/b/b/b/ | _b/bb/- bb | z/ c'/c'/c'/ =b/b/b/b/ | %53
 _b/bb/- bb |"_cresc." z/ =b/b/b/ z/ c'/_b/a/ | z/ ^f'/f'/f'/ z/ d'/d'/d'/ | %56
 (!>![d'=f']/=b/a/g/ [d_b]/)[eb]/-[eb] |1 [ac'f']"_rit." [CEc]/[Dd]/ !>![CE^Gc]2 :|2 %58
 [ac'f'][cegbc'] !>![fac'f'] z ||[K:C]!ff! c/d/e/!>!d/- d/c/A | G/A/c/!>!A/- A/G/E | !>![CD_A]4 | %62
 z !>![FGB]!>![EGc] z | A/B/c/!>!B/- B/A/E | F/G/F/!>!E/- E/(D/^D/E/ | %65
 !>![A,B,DF]2-) [A,B,DF] !>![^A,E^F] | !>![B,^D^FB]2 !>![E^GBe]3/2 (3E/4F/4G/4 || %67
!mf!!8va(! z/ [^g'^g'']/"_L.H."!>![a'c''e''a'']/ z/ !>![^d'^d'']/[e'a'c''e'']/ z/ [^g^g']/ | %68
!>![ac'e'a']/ z/!8va)! !>![^d^d']/[eac'e']/ z/ [^G^g]/!>![Aa]/[Ee]/ | %69
 z/ [Adfa][Adfa]/- [Adfa]/[Gg]/[Ff] | !>![EAce]7/2 (3E/4^F/4^G/4 | %71
!8va(! z/ [^g'^g'']/"_L.H."!>![a'c''e''a'']/ z/ !>![^d'^d'']/[e'a'c''e'']/ z/ [^g^g']/ | %72
!>![ac'e'a']/ z/!8va)! !>![^d^d']/[eac'e']/ z/ [^G^g]/!>![Aa]/[Ee]/ | %73
 z/ [e^fac'e']!>![eac'e']/- [eac'e']/[dd']/[cc']/[Bb]/ | %74
 [Aa]/[_A_a]/[Gg]/!>![_G_g]/- [Gg]/[Ff]/[Ee] | %75
!8va(! z/ [^g'^g'']/"_L.H."!>![a'c''e''a'']/ z/ !>![^d'^d'']/[e'a'c''e'']/ z/ [^g^g']/ | %76
!>![ac'e'a']/ z/!8va)! !>![^d^d']/[eac'e']/ z/ [^G^g]/!>![Aa]/[Ee]/ | %77
 z/ [Adfa][Adfa]/- [Adfa]/[Gg]/[Ff] | !>![EAce]7/2 (3E/4^F/4^G/4 | %79
 A/!8va(! [a^c'e'a']!>![ad'f']/- [ad'f']/e'/[ad'] | %80
 z/ [bd'f'g']!>![gc'e']/- [gc'e']/d'/[gc']!8va)! | z/ [f^g]/[^fa]/!>![=fbe']/- [fbe']/^d'/[fbe'] | %82
 [egc']2!8va(! !>![c'e'g'c'']2!8va)! |] %83
V:2
 [G,G]4 | [G,G]4 | G,/A,/B,/A,/- A,/G,/_G,/F,/ | E, z [E,,,E,,] z | !>![A,,A,]3/2 x/ x2 | x4 | %6
 [D,,D,][A,DF] [D,,D,][F,A,D] | %7
 ([A,,A,]/[_A,,_A,]/[G,,G,]/!>![_G,,_G,]/- [G,,G,]/[F,,F,]/[E,,E,]) | !>![A,,A,]3/2 x/ x2 | x4 | %10
 [D,,D,][A,CD^F] [D,,D,][A,CDF] | %11
 [A,,A,]/[_A,,_A,]/[G,,G,]/!>![_G,,_G,]/- [G,,G,]/[F,,F,]/[E,,E,] | !>![A,,A,]3/2 x/ x2 | x4 | %14
 [D,,D,][A,DF] [D,,D,][F,A,D] | %15
 ([A,,A,]/[_A,,_A,]/[G,,G,]/!>![_G,,_G,]/- [G,,G,]/[F,,F,]/[E,,E,]) | %16
 [A,,A,][A,^CEG] [D,,D,][A,DF] | [G,,G,][G,B,F] [C,C][G,CE] | [D,,D,][A,^DF] [G,,G,][G,B,=F] | %19
 [G,CE]2 !>![C,,C,]2 |: [A,,A,][E,A,C] [E,,E,][E,A,C] | [A,,A,][E,A,C] [A,,A,][D,,D,] | %22
 [G,,G,][D,G,B,] [D,,D,][D,G,B,] | [G,,G,][D,G,B,] [D,,D,][D,G,B,] | %24
 [A,,A,][^F,A,C] [D,,D,][F,A,C] | [A,,A,][^F,A,C] [A,,A,][G,,D,B,] | !arpeggio!!>![C,G,E]4 | %27
[K:treble] A/^G/A/G/- z/[K:bass] ([E,,E,]/[^G,,^G,]/[^A,,^A,]/ | [A,,A,])[E,A,C] [E,,E,][E,A,C] | %29
 [A,,A,][E,A,C] [A,,A,][D,,D,] | [G,,G,][D,G,B,] [D,,D,][D,G,B,] | %31
 [G,,G,][D,G,B,] [D,,D,][D,G,B,] | [A,,A,][^F,A,C] [D,,D,][F,A,C] | %33
 [A,,A,][^F,A,C] !arpeggio![G,,D,B,][G,B,=F] |1 [C,G,E] !tenuto!_B,!tenuto!A,!tenuto!_A, | %35
 !tenuto!G,/ !>![E,,E,][^F,,^F,]/ ([^G,,^G,]/[F,,F,]/[E,,E,]) :|2 %36
 !arpeggio![G,E] !tenuto!_B,!tenuto!A,!tenuto!_A, | !tenuto!G,2 [C,,C,] z ||[K:treble] [C_B]4 | %39
[K:bass] [C,_B,]4 | (C,/D,/E,/F,/ G,/A,/_B,/=B,/ | C2) [C,,C,] z |: %42
[K:F] [F,,F,][A,CF] [_A,,_A,][=B,DF] | [G,,G,][_B,DE] C,[B,DE] | [F,,F,][A,CF] [_A,,_A,][=B,DF] | %45
 [G,,G,][_B,DE] C,[B,DE] | _D,[_A,_CF] C,[=A,=CF] | D,[^F,A,C] [G,,G,][G,B,D] | %48
 !arpeggio!!^![G,,D,=B,]4 | C/D[G,CE]/- [G,CE] !>![C,,C,] | !>![F,,F,][A,CF] [_A,,_A,][=B,DF] | %51
 [G,,G,][_B,DE] C,[B,DE] | [F,,F,][A,CF] [_A,,_A,][=B,DF] | [G,,G,][_B,DE] C,[B,DE] | %54
 _D,[_A,_CF] C,[=A,=CF] | D,[^F,A,C] [G,,G,][G,B,D] | [G,,G,][G,=B,F] [G,,G,][C,,C,] |1 %57
 !arpeggio![F,,C,A,] [C,,C,]!tenuto![C,,C,] !>![C,,C,] :|2 [F,,C,A,] [C,,C,]!>![F,,,F,,] z || %59
[K:C] C/D/E/!>!D/- D/C/A, | G,/A,/C/!>!A,/- A,/G,/E, | !>![F,,F,]4 | z !>![G,,G,]!>![C,C] z | %63
 A,/B,/C/!>!B,/- B,/A,/E, | F,/G,/F,/!>!E,/- E,/(D,/^D,/E,/ | !>![D,,D,]2-) [D,,D,] !>![^C,,^C,] | %66
 !>![B,,,B,,]2!8vb(! !>![E,,,E,,]2!8vb)! || !>![A,,A,]3/2 x/ x2 | x4 | %69
 [D,,D,][A,DF] [D,,D,][F,A,D] | %70
 ([A,,A,]/[_A,,_A,]/[G,,G,]/!>![_G,,_G,]/- [G,,G,]/[F,,F,]/[E,,E,]) | !>![A,,A,]3/2 x/ x2 | x4 | %73
 [D,,D,][A,CD^F] [D,,D,][A,CDF] | %74
 [A,,A,]/[_A,,_A,]/[G,,G,]/!>![_G,,_G,]/- [G,,G,]/[F,,F,]/[E,,E,] | !>![A,,A,]3/2 x/ x2 | x4 | %77
 [D,,D,][A,DF] [D,,D,][F,A,D] | %78
 ([A,,A,]/[_A,,_A,]/[G,,G,]/!>![_G,,_G,]/- [G,,G,]/[F,,F,]/[E,,E,]) | %79
 [A,,A,][A,^CEG] [D,,D,][A,DF] | [G,,G,][G,B,F] [C,C][G,CE] | [D,,D,][A,^DF] [G,,G,][G,B,=F] | %82
 [G,CE]2 !>![C,,C,]2 |] %83
V:3
 x4 | x4 | x4 | x4 |!8va(! a/ x/ z/ [ac'e']/ x !>![eac']/ x/ | x/ [Ace]/!8va)! x !>![EAc]/ x3/2 | %6
 x4 | x4 |!8va(! a/ x/ z/ [ac'e']/ x !>![eac']/ x/ | x/ [Ace]/!8va)! x !>![EAc]/ x3/2 | x4 | x4 | %12
!8va(!{e^f^g} a/ x/ z/ [ac'e']/ x !>![eac']/ x/ | x/ [Ace]/!8va)! x !>![EAc]/ x3/2 | x4 | x4 | %16
 x/!8va(! x7/2 | x4!8va)! | x4 | x2!8va(! x2!8va)! |: x4 | x4 | x4 | x4 | x4 | x4 | x4 | x2 d2 | %28
!8va(! x4 | x4 | x4 | x4!8va)! | x4 | x4 |1 z !tenuto!G!tenuto!_G!tenuto!F | !tenuto!E/ x7/2 :|2 %36
 z !tenuto!G!tenuto!_G!tenuto!F | !tenuto!E2 x2 || x4 | x4 | x4 | x2!8va(! x2!8va)! |: %42
[K:F] x/ (a/g/f/ e/f/e/f/ | d/ed/- dc) | x/ (a/g/f/ e/f/e/f/ | d/ed/- dc) | %46
 x/ (_a/g/f/) x/ (=a/g/f/) | x/ (d'/c'/b/) x/ (b/a/g/) | x4 | x4 | x/ (a/g/f/ e/f/e/f/ | %51
 d/ed/- dc) | x/ (a/g/f/ e/f/e/f/ | d/ed/- dc) | x/ (_a/g/f/) x/ (=a/g/f/) | %55
 x/ (d'/c'/b/) x/ (b/a/g/) | x5/2 c'/- c' |1 [fa] x3 :|2 [fa] x3 ||[K:C] x4 | x4 | z x3 | x4 | x4 | %64
 x4 | x4 | A,2 x2 ||!8va(! a/ x/ z/ [ac'e']/ x !>![eac']/ x/ | x/ [Ace]/!8va)! x !>![EAc]/ x3/2 | %69
 x4 | x4 |!8va(! a/ x/ z/ [ac'e']/ x !>![eac']/ x/ | x/ [Ace]/!8va)! x !>![EAc]/ x3/2 | x4 | x4 | %75
!8va(!{e^f^g} a/ x/ z/ [ac'e']/ x !>![eac']/ x/ | x/ [Ace]/!8va)! x !>![EAc]/ x3/2 | x4 | x4 | %79
 x/!8va(! x7/2 | x4!8va)! | x4 | x2!8va(! x2!8va)! |] %83
V:4
 x4 | x4 | x4 | x4 | x4 | x4 | x4 | x4 | x4 | x4 | x4 | x4 | x4 | x4 | x4 | x4 | x4 | x4 | x4 | %19
 x4 |: x4 | x4 | x4 | x4 | x4 | x4 | x4 |[K:treble] x2 G2[K:bass] | x4 | x4 | x4 | x4 | x4 | x4 |1 %34
 x C,3- | C,/ x7/2 :|2 !arpeggio!C, C,3- | C,2 x2 ||[K:treble] x4 |[K:bass] x4 | x4 | x4 |: %42
[K:F] x4 | x4 | x4 | x4 | x4 | x4 | x4 | x4 | x4 | x4 | x4 | x4 | x4 | x4 | x4 |1 x4 :|2 x4 || %59
[K:C] x4 | x4 | z _A,,/_B,,/C,/B,,/ A,, | x4 | x4 | x4 | x4 | x2!8vb(! x2!8vb)! || x4 | x4 | x4 | %70
 x4 | x4 | x4 | x4 | x4 | x4 | x4 | x4 | x4 | x4 | x4 | x4 | x4 |] %83
V:5
 x4 | x4 | x4 | x4 | x4 | x4 | x4 | x4 | x4 | x4 | x4 | x4 | x4 | x4 | x4 | x4 | x4 | x4 | x4 | %19
 x4 |: x4 | x4 | x4 | x4 | x4 | x4 | x4 |[K:treble] x5/2[K:bass] x3/2 | x4 | x4 | x4 | x4 | x4 | %33
 x4 |1 x4 | x4 :|2 x4 | x4 ||[K:treble] x4 |[K:bass] x4 | x4 | x4 |:[K:F] x4 | x4 | x4 | x4 | x4 | %47
 x4 | x4 | x4 | x4 | x4 | x4 | x4 | x4 | x4 | x4 |1 x4 :|2 x4 ||[K:C] x4 | x4 | %61
 x F,/G,/_A,/G,/ F, | x4 | x4 | x4 | x4 | x2!8vb(! x2!8vb)! || x4 | x4 | x4 | x4 | x4 | x4 | x4 | %74
 x4 | x4 | x4 | x4 | x4 | x4 | x4 | x4 | x4 |] %83

